static/img/in-field/btn-colour-mix-progression-primary-dark.svg

<svg width="90" height="48" viewBox="0 0 90 48" fill="none" xmlns="http://www.w3.org/2000/svg">
<rect width="90" height="48" rx="4" fill="#019AEB"/>
<path d="M26.6016 32L25.5664 28.6016H20.3613L19.3262 32H16.0645L21.1035 17.6641H24.8047L29.8633 32H26.6016ZM24.8438 26.0625C23.8867 22.9831 23.3464 21.2415 23.2227 20.8379C23.1055 20.4342 23.0208 20.1152 22.9688 19.8809C22.7539 20.7142 22.1387 22.7747 21.123 26.0625H24.8438ZM37.6816 32.1953C36.3991 32.1953 35.3932 31.7298 34.6641 30.7988H34.5078C34.612 31.7103 34.6641 32.2376 34.6641 32.3809V36.8047H31.6855V21.082H34.1074L34.5273 22.498H34.6641C35.3607 21.4173 36.3926 20.877 37.7598 20.877C39.0488 20.877 40.0579 21.375 40.7871 22.3711C41.5163 23.3672 41.8809 24.7507 41.8809 26.5215C41.8809 27.6868 41.7083 28.6992 41.3633 29.5586C41.0247 30.418 40.5397 31.0723 39.9082 31.5215C39.2767 31.9707 38.5345 32.1953 37.6816 32.1953ZM36.8027 23.2598C36.0671 23.2598 35.5299 23.4876 35.1914 23.9434C34.8529 24.3926 34.6771 25.138 34.6641 26.1797V26.502C34.6641 27.6738 34.8366 28.5137 35.1816 29.0215C35.5332 29.5293 36.0866 29.7832 36.8418 29.7832C38.1764 29.7832 38.8438 28.6829 38.8438 26.4824C38.8438 25.4082 38.6777 24.6042 38.3457 24.0703C38.0202 23.5299 37.5059 23.2598 36.8027 23.2598ZM50.5879 32.1953C49.3053 32.1953 48.2995 31.7298 47.5703 30.7988H47.4141C47.5182 31.7103 47.5703 32.2376 47.5703 32.3809V36.8047H44.5918V21.082H47.0137L47.4336 22.498H47.5703C48.2669 21.4173 49.2988 20.877 50.666 20.877C51.9551 20.877 52.9642 21.375 53.6934 22.3711C54.4225 23.3672 54.7871 24.7507 54.7871 26.5215C54.7871 27.6868 54.6146 28.6992 54.2695 29.5586C53.931 30.418 53.446 31.0723 52.8145 31.5215C52.1829 31.9707 51.4408 32.1953 50.5879 32.1953ZM49.709 23.2598C48.9733 23.2598 48.4362 23.4876 48.0977 23.9434C47.7591 24.3926 47.5833 25.138 47.5703 26.1797V26.502C47.5703 27.6738 47.7428 28.5137 48.0879 29.0215C48.4395 29.5293 48.9928 29.7832 49.748 29.7832C51.0827 29.7832 51.75 28.6829 51.75 26.4824C51.75 25.4082 51.584 24.6042 51.252 24.0703C50.9264 23.5299 50.4121 23.2598 49.709 23.2598ZM60.4766 32H57.498V16.8047H60.4766V32ZM62.2988 21.082H65.5605L67.6211 27.2246C67.7969 27.7585 67.9173 28.39 67.9824 29.1191H68.041C68.1126 28.4486 68.2526 27.8171 68.4609 27.2246L70.4824 21.082H73.6758L69.0566 33.3965C68.6335 34.5358 68.028 35.3887 67.2402 35.9551C66.459 36.5215 65.5443 36.8047 64.4961 36.8047C63.9818 36.8047 63.4772 36.7493 62.9824 36.6387V34.2754C63.3405 34.36 63.7311 34.4023 64.1543 34.4023C64.6816 34.4023 65.1406 34.2396 65.5312 33.9141C65.9284 33.5951 66.2376 33.11 66.459 32.459L66.6348 31.9219L62.2988 21.082Z" fill="#fff"/>
</svg>

<svg width="90" height="48" fill="none" xmlns="http://www.w3.org/2000/svg"><rect width="90" height="48" rx="4" fill="#019AEB"/><path d="M26.602 32l-1.036-3.398h-5.205L19.326 32h-3.262l5.04-14.336h3.7L29.865 32h-3.262zm-1.758-5.938c-.957-3.079-1.498-4.82-1.621-5.224a16.382 16.382 0 01-.254-.957c-.215.833-.83 2.894-1.846 6.181h3.72zm12.838 6.133c-1.283 0-2.289-.465-3.018-1.396h-.156c.104.911.156 1.439.156 1.582v4.424h-2.979V21.082h2.422l.42 1.416h.137c.697-1.08 1.729-1.621 3.096-1.621 1.289 0 2.298.498 3.027 1.494.73.996 1.094 2.38 1.094 4.15 0 1.166-.173 2.178-.518 3.038-.338.859-.823 1.513-1.455 1.962-.631.45-1.373.674-2.226.674zm-.88-8.935c-.735 0-1.272.228-1.61.683-.34.45-.515 1.195-.528 2.237v.322c0 1.172.173 2.012.518 2.52.351.507.905.761 1.66.761 1.334 0 2.002-1.1 2.002-3.3 0-1.075-.166-1.879-.498-2.413-.326-.54-.84-.81-1.543-.81zm13.786 8.935c-1.283 0-2.288-.465-3.018-1.396h-.156c.104.911.156 1.439.156 1.582v4.424h-2.978V21.082h2.422l.42 1.416h.136c.697-1.08 1.729-1.621 3.096-1.621 1.29 0 2.298.498 3.027 1.494.73.996 1.094 2.38 1.094 4.15 0 1.166-.172 2.178-.517 3.038-.339.859-.824 1.513-1.456 1.962-.631.45-1.373.674-2.226.674zm-.879-8.935c-.736 0-1.273.228-1.611.683-.339.45-.515 1.195-.528 2.237v.322c0 1.172.173 2.012.518 2.52.352.507.905.761 1.66.761 1.335 0 2.002-1.1 2.002-3.3 0-1.075-.166-1.879-.498-2.413-.326-.54-.84-.81-1.543-.81zM60.477 32h-2.979V16.805h2.979V32zm1.822-10.918h3.262l2.06 6.143c.176.534.296 1.165.361 1.894h.059c.072-.67.212-1.302.42-1.894l2.021-6.143h3.194l-4.62 12.315c-.422 1.139-1.028 1.992-1.816 2.558-.781.567-1.696.85-2.744.85a6.918 6.918 0 01-1.514-.166v-2.364c.358.085.75.127 1.172.127.528 0 .987-.162 1.377-.488.397-.319.707-.804.928-1.455l.176-.537-4.336-10.84z" fill="#fff"/></svg>
